X:1
T:Title
%%score { ( 1 4 ) | ( 2 3 ) }
L:1/8
Q:1/4=200
M:4/4
K:C
V:1 treble nm="Piano" snm="Pno."
V:4 treble 
V:2 bass 
V:3 bass 
V:1
 !//-![dg]4 a4 | !//-![dg]4 a4 | !//-!G4 [da]4 | !//-!G4 [da]4 | !//-![gd']4 a'4 | %5
 !//-![gd']4 a'4 | !//-![gd']4 a'4 | !//-![gd']4 a'4 | %8
 .[gd'g'] z z2 (14:2:14G,63/64A,63/64B,63/64C63/64D63/64E63/64F63/64G63/64A63/64B63/64c63/64d63/64e63/64f63/64 g z | %9
!8va(! (14:2:14g63/64a63/64b63/64c'63/64d'63/64e'63/64f'63/64g'63/64a'63/64b'63/64c''63/64d''63/64e''63/64f''63/64 g''!8va)! z (9:8:9[B,B]/4[Cc]/4[Dd]/4[Ee]/4[Ff]/4[Gg]/4[Aa]/4[Bb]/4[cc']/4!8va(! [dd']/4[ee']/4[ff']/4[gg']/4[aa']/4[bb']/4[c'c'']/4[d'd'']/4!8va)! | %10
!mf! .[ee'] z .[ee'] z .[ee'] z .[ee'] z | %11
 e/4f'/4e/4f'/4e .[^d^d'].[ee'] .[aa'].[gg'].[ff'].[ee'] | .[dd'] z .[dd'] z .[dd'] z .[dd'] z | %13
 d/4e'/4d/4e'/4d .[^c^c'].[dd'] .[gg'].[ff'].[ee'].[dd'] | .[cc'] z .[cc'] z .[cc'] z .[cc'] z | %15
 c/4d'/4c/4d'/4c .[Bb].[cc'] .[ff'].[ee'].[dd'].[cc'] | %16
 .[cc'].[Bb].[dd'].[Bb] .[Bb].[Aa].[dd'].[Aa] | .[Aa].[Gg].[^F^f].[Gg] .[Aa].[Bb].[cc'].[dd'] | %18
!mf! .[ee'] z .[ee'] z .[ee'] z .[ee'] z | %19
 e/4f'/4e/4f'/4e .[^d^d'].[ee'] .[aa'].[gg'].[ff'].[ee'] | .[dd'] z .[dd'] z .[dd'] z .[dd'] z | %21
 d/4e'/4d/4e'/4d .[^c^c'].[dd'] .[gg'].[ff'].[ee'].[dd'] | .[cc'] z .[cc'] z .[cc'] z .[cc'] z | %23
 c/4d'/4c/4d'/4c .[Bb].[cc'] .[ff'].[ee'].[dd'].[cc'] | %24
 .[cc'].[Bb].[dd'].[cc'] .[ee'].[dd'].[ff'].[ee'] | %25
 .[gg'].[^f^f'].[c'c''].[ff']!f!!8va(! (g'b'/d''/ .g'')!8va)! z | %26
[K:bass] C,/D,/_E,/G,/ F,/G,/_A,/C/ C/D/_E/G/[K:treble] F/G/_A/c/ | %27
 c/d/_e/g/ f/g/_a/c'/!8va(! c'/d'/_e'/g'/ f'/g'/_a'/c''/!8va)! | %28
!8va(! _e''/f''/g''/c''/ b'/c''/d''/f'/ _e'/f'/g'/c'/ b/c'/d'/f/!8va)! | %29
 _e/f/g/c/ d/c/B/A/ c/B/A/G/ G/F/_E/D/ | C/D/_E/G/ F/G/_A/c/ c/d/_e/g/ f/g/_a/c'/ | %31
 c/d/_e/g/ f/g/_a/c'/!8va(! c'/d'/_e'/g'/ f'/g'/_a'/c''/!8va)! | %32
!8va(! _e''/f''/g''/c''/ b'/c''/d''/f'/ _e'/f'/g'/c'/ b/c'/d'/f/!8va)! | %33
 _e/f/g/c/ d/c/B/A/ c/B/A/G/ G/F/_E/D/ | c/_B/_A/G/ F/A/c/f/ c'/_b/_a/g/ f/a/c'/f'/ | %35
 d/c/B/A/ G/B/d/g/ d'/c'/b/a/ g/b/d'/g'/ | _e/d/c/_B/ _A/c/e/_a/ _e'/d'/c'/_b/ a/c'/e'/_a'/ | %37
 f/_e/d/c/ B/d/f/_b/ f'/_e'/d'/c'/ b/d'/f'/_b'/ | F/E/D/C/ B,/D/F/B/ A/G/F/E/ D/F/B/d/ | %39
 f/e/d/c/ B/d/f/b/ a/g/f/e/ d/f/b/d'/ | %40
!8va(! f'/e'/d'/c'/ b/d'/f'/b'/ a'/g'/f'/e'/ d'/f'/b'/d''/!8va)! | %41
"_gliss."!8va(! [a'f'']/[g'e'']/[f'd'']/[e'c'']/ [d'b']/[c'a']/[bg']/[af']/ [ge']/[fd']/[ec']/[db]/!8va)! [ca]/[Bg]/[Af]/[GBe]/ | %42
 [Ad]/[Gc]/[FB]/[EA]/ [DG]/[CF]/[B,E]/[A,D]/[K:bass] [G,C]/[F,B,]/[E,A,]/[D,G,]/ [C,F,]/[B,,E,]/[A,,D,]/ z/ | %43
[K:treble]!mf! .[ee'] z .[ee'] z .[ee'] z .[ee'] z | %44
 e/4f'/4e/4f'/4e .[^d^d'].[ee'] .[aa'].[gg'].[ff'].[ee'] | .[dd'] z .[dd'] z .[dd'] z .[dd'] z | %46
 d/4e'/4d/4e'/4d .[^c^c'].[dd'] .[gg'].[ff'].[ee'].[dd'] | .[cc'] z .[cc'] z .[cc'] z .[cc'] z | %48
 c/4d'/4c/4d'/4c .[Bb].[cc'] .[ff'].[ee'].[dd'].[cc'] | %49
 .[cc'].[Bb].[dd'].[Bb] .[Bb].[Aa].[dd'].[Aa] | .[Aa].[Gg].[^F^f].[Gg] .[Aa].[Bb].[cc'].[dd'] | %51
!f! .[ee'] z .[ee'] z .[ee'] z .[ee'] z | e/4f'/4e/4f'/4e .[^d^d'].[ee'] .[aa'].[gg'].[ff'].[ee'] | %53
 .[dd'] z .[dd'] z .[dd'] z .[dd'] z | d/4e'/4d/4e'/4d .[^c^c'].[dd'] .[gg'].[ff'].[ee'].[dd'] | %55
 .[cc'] z .[cc'] z .[cc'] z .[cc'] z | c/4d'/4c/4d'/4c .[Bb].[cc'] .[ff'].[ee'].[dd'].[cc'] | %57
 c/c'/B/b/ d/d'/B/b/ d/d'/c/c'/ e/e'/c/c'/ | c/c'/B/b/ d/d'/B/b/ d/d'/c/c'/ e/e'/c/c'/ | %59
 B/b/c/c'/ d/d'/g/g'/ c/c'/d/d'/ e/e'/g/g'/ | B/b/c/c'/ d/d'/g/g'/ c/c'/d/d'/ e/e'/g/g'/ | %61
 [fc'f']2 !wedge!f!wedge!f !wedge!f!wedge!f!wedge!f!wedge!f | %62
{/f} !>!c'2 !wedge!f!wedge!f !wedge!f!wedge!f!wedge!f!wedge!f | %63
{/f} !>!c'2 !wedge!f!wedge!f !>!c'2 !wedge!f!wedge!f | %64
 !>!c'2 !wedge!f!wedge!f !>!c'2 !wedge!^f!wedge!f | %65
 !>![Gfg]2 !wedge![Gg]!wedge![Gg] !wedge![Gg]!wedge![Gg]!wedge![Gg]!wedge![Gg] | %66
{/g} !>![dd']2 !wedge![Gg]!wedge![Gg] !wedge![Gg]!wedge![Gg]!wedge![Gg]!wedge![Gg] | %67
{/g} !>![dd']2 !wedge!g!wedge!g !>!d'2 !wedge!g!wedge!g | %68
 !>!d'2 !wedge!g!wedge!g !>!d'2 !wedge!g!wedge!g | %69
 !>![gc'g']!p! z{/^F} [CEG] z{/=B} [EGc] z{/^d} [Gce] z | %70
{/^f} [ceg] z{/b} [eac'] z{/^d'} [gbe'] z{/^f'} [c'e'g'] z | %71
{/^f'} [be'g'] z{/^d'} [gbe'] z{/^a} [egb] z{/^f} [ceg] z | %72
{/^a} [egb] z{/^d'} [gbe'] z!8va(!{/^f'} [c'e'g'] z{/^a'} [e'g'b'] z | %73
!<(!{/a'} [e'g'_b'] z{/^f'} [_be'g']!8va)! z{/^d'} [gbe'] z{/a} [egb] z | %74
{/a} [eg_b] z!8va(!{/^d'} [gbe'] z{/^f'} [be'g'] z{/a'} [be'_b'] z!<)! | %75
!f!{/^a'} [bf'=b']!8va)! z"_gliss." (9:8:9B,/4C/4D/4E/4F/4G/4A/4B/4c/4 d/4e/4f/4g/4!8va(!a/4b/4c'/4d'/4 e'/4f'/4g'/4=a'/4b'/4c''/4d''/4e''/4 | %76
 [f'b'd''f'']!8va)! z (9:8:9B,/4C/4D/4E/4F/4G/4A/4B/4c/4 d/4e/4f/4g/4!8va(!a/4b/4c'/4d'/4 e'/4f'/4g'/4a'/4b'/4c''/4d''/4e''/4 | %77
 [f'b'd''f'']!8va)! z [fbd'f'][fbd'f'] [fbd'f']2 [fbd'f'][fbd'f'] | %78
 [fbd'f']2 [fbd'f'][fbd'f'] [fbd'f']2 [fbd'f'][fbd'f'] | [ee'][cc'][ee'][Bb] [ee'][Aa][ee'][_A_a] | %80
"^gliss." [ee']/[dd']/[cc']/[Bb]/ [Aa]/[Gg]/[Ff]/[Ee]/ [Dd]/[Ee]/[Ff]/[Gg]/ [Aa]/[Bb]/[cc']/[dd']/ | %81
 [ee'][cc'][ee'][Bb] [ee'][Aa][ee'][_A_a] | %82
 [ee']/[dd']/[cc']/[Bb]/ [Aa]/[Gg]/[Ff]/[Ee]/ [Dd]/[Ee]/[Ff]/[Gg]/ [Aa]/[Bb]/[cc']/[dd']/ | %83
 !//-![ec']4 e'4 | !//-![ec']4 e'4 | !//-![ec']4 e'4 | !//-![ec']4 e'4 | %87
!ff! z [Bdb][cec'][Bdb] [cec'][Bdb][cec'][Bdb] | [cec'][Bdb][cec'][Bdb] [cec'][Bdb][cec'][Bdb] | %89
 [cec']2 z2 [ege']2 z2 | [CEGc]2 z2 z4 |] %91
V:2
 z8 | z8 | z8 | z8 | z4!8vb(! ([G,,,G,,]2 [^C,,^C,]2 | .[D,,D,]2) z2 ([G,,,G,,]2 [^C,,^C,]2 | %6
 .[D,,D,]2) z2 ([G,,,G,,]2 [^C,,^C,]2 | .[D,,D,]2) z2 ([G,,,G,,]2 [^C,,^C,]2 | %8
 .[D,,D,])!8vb)! z"^gliss." (14:2:14G,,63/64A,,63/64B,,63/64C,63/64D,63/64E,63/64F,63/64G,63/64A,63/64B,63/64C63/64D63/64E63/64F63/64 G z[K:treble] (14:2:14G63/64A63/64B63/64c63/64d63/64e63/64f63/64g63/64a63/64b63/64c'63/64d'63/64e'63/64f'63/64 | %9
 g' z[K:bass] (9:8:9[G,,G,]/4[A,,A,]/4[B,,B,]/4[C,C]/4[D,D]/4[E,E]/4[F,F]/4[G,G]/4[A,A]/4 z4 | %10
 .[C,C].[EG].[C,C].[EG] .[C,C].[EG].[C,C].[EG] | %11
 .[_B,,_B,].[DEG].[_B,,_B,].[DEG] .[A,,A,].[^CEG].[A,,A,].[CEG] | %12
 .[_B,,_B,].[DF].[_B,,_B,].[DF] .[A,,A,].[DF].[A,,A,].[DF] | %13
 .[_A,,_A,].[CDF].[_A,,_A,].[CDF] .[G,,G,].[B,DF].[G,,G,].[B,DF] | %14
 .[A,,A,].[CE].[A,,A,].[CE] .[G,,G,].[_B,CE].[G,,G,].[B,CE] | %15
 .[F,,F,].[A,CF].[F,,F,].[A,CF] .[D,,D,].[A,DF].[D,,D,].[A,DF] | %16
 .[G,,G,].[B,D].[G,,G,].[B,D] .[A,,A,].[CD^F].[A,,A,].[CDF] | %17
 .[B,,B,].[DG].[B,,B,].[DG] .[G,,G,].[B,DFG].[G,,G,].[B,DFG] | %18
 .[C,C].[EG].[C,C].[EG] .[C,C].[EG].[C,C].[EG] | %19
 .[_B,,_B,].[DEG].[_B,,_B,].[DEG] .[A,,A,].[^CEG].[A,,A,].[CEG] | %20
 .[_B,,_B,].[DF].[_B,,_B,].[DF] .[A,,A,].[DF].[A,,A,].[DF] | %21
 .[_A,,_A,].[CDF].[_A,,_A,].[CDF] .[G,,G,].[B,DF].[G,,G,].[B,DF] | %22
 .[A,,A,].[CE].[A,,A,].[CE] .[G,,G,].[_B,CE].[G,,G,].[B,CE] | %23
 .[F,,F,].[A,CF].[F,,F,].[A,CF] .[D,,D,].[A,DF].[D,,D,].[A,DF] | %24
 .[G,,G,].[B,D].[G,,G,].[B,D] .[A,,A,].[CD^F].[A,,A,].[CDF] | %25
 .[G,,G,].[DAc].[G,,G,].[DAc] .[G,,G,][K:treble]b/d'/ g' z | %26
[K:bass] .G,, z .G,, z .[G,,_E,G,] z .[G,,F,_A,] z | %27
 .[G,,_E,G,] z .[G,,F,_A,] z .[G,,E,G,] z .[G,,F,A,] z | %28
 .[G,,_E,G,] z .[G,,D,G,] z .[G,,E,G,] z .[G,,D,G,] z | %29
 .[G,,_E,G,] z .[G,,^F,A,] z .[G,,G,B,] z .[G,,D,G,] z | %30
 .[G,,_E,G,] z .[G,,F,_A,] z .[G,,E,G,] z .[G,,F,A,] z | %31
 .[G,,_E,G,] z .[G,,F,_A,] z .[G,,E,G,] z .[G,,F,A,] z | %32
 .[G,,_E,G,] z .[G,,D,G,] z .[G,,E,G,] z .[G,,D,G,] z | %33
 .[G,,_E,G,] z .[G,,^F,A,] z .[G,,G,B,] z .[G,,D,G,] z | %34
 .[G,,_E,G,] z .[G,,F,_A,] z .[G,,E,G,] z .[G,,F,A,] z | %35
 .[G,,^F,A,] z .[G,,D,G,] z .[G,,F,A,] z .[G,,D,G,] z | %36
 .[G,,_B,,_E,] z .[_A,,C,E,] z .[G,,B,,E,] z .[A,,C,E,] z | %37
 .[A,,C,F,] z .[_B,,D,F,] z .[A,,C,F,] z .[B,,D,F,] z | %38
 .[G,,D,].[G,,D,].[G,,D,].[G,,D,] .[G,,D,B,].[G,,D,B,].[G,,D,B,].[G,,D,B,] | %39
 .[D,G,B,F].[D,G,B,F].[D,G,B,F].[D,G,B,F] .[D,G,B,F].[D,G,B,F].[D,G,B,F].[D,G,B,F] | %40
 .[D,G,B,F].[D,G,B,F].[D,G,B,F].[D,G,B,F] .[D,G,B,F].[D,G,B,F].[D,G,B,F].[D,G,B,F] | %41
{/[G,,D,]} [A,CF] z[K:treble] f/e/d/c/ B/A/G/F/ E/D/C/ z/ | %42
[K:bass] [G,,D,B,]D/C/ B,/A,/G,/F,/ E,/D,/C,/B,,/ A,,/G,,/A,,/B,,/ | %43
 .[C,C].[EG].[C,C].[EG] .[C,C].[EG].[C,C].[EG] | %44
 .[_B,,_B,].[DEG].[_B,,_B,].[DEG] .[A,,A,].[^CEG].[A,,A,].[CEG] | %45
 .[_B,,_B,].[DF].[_B,,_B,].[DF] .[A,,A,].[DF].[A,,A,].[DF] | %46
 .[_A,,_A,].[CDF].[_A,,_A,].[CDF] .[G,,G,].[B,DF].[G,,G,].[B,DF] | %47
 .[A,,A,].[CE].[A,,A,].[CE] .[G,,G,].[_B,CE].[G,,G,].[B,CE] | %48
 .[F,,F,].[A,CF].[F,,F,].[A,CF] .[D,,D,].[A,DF].[D,,D,].[A,DF] | %49
 .[G,,G,].[B,D].[G,,G,].[B,D] .[A,,A,].[CD^F].[A,,A,].[CDF] | %50
 .[B,,B,].[DG].[B,,B,].[DG] .[G,,G,].[B,DFG].[G,,G,].[B,DFG] | %51
 .[C,,C,].[EG].[C,,C,].[EG] .[C,,C,].[EG].[C,,C,].[EG] | %52
 .[_B,,,_B,,].[DEG].[B,,,B,,].[DEG] .[A,,,A,,].[^CEG].[A,,,A,,].[CEG] | %53
 .[_B,,,_B,,].[DF].[B,,,B,,].[DF] .[A,,,A,,].[DF].[A,,,A,,].[DF] | %54
 .[_A,,,_A,,].[CDF].[A,,,A,,].[CDF] .[G,,,G,,].[B,DF].[G,,,G,,].[B,DF] | %55
 .[A,,,A,,].[CE].[A,,,A,,].[CE] .[G,,,G,,].[_B,CE].[G,,,G,,].[B,CE] | %56
 .[F,,,F,,].[A,CF].[F,,,F,,].[A,CF] .[D,,D,].[A,DF].[D,,D,].[A,DF] | %57
 z [G,DF][G,DF][G,DF] z [G,CE][G,CE][G,CE] | z [G,DF][G,DF][G,DF] z [G,CE][G,CE][G,CE] | %59
 z [G,DF][G,DF][G,DF] z [G,CE][G,CE][G,CE] | z [G,DF][G,DF][G,DF] z [G,CE][G,CE][G,CE] | %61
 [A,,,A,,]2[K:treble] z2 z2 !wedge!A!wedge!A | %62
 !wedge!A!wedge!A!wedge!A!wedge!A{/A} !>!e2 !wedge!A!wedge!A | %63
 !wedge!A!wedge!A.[A,A].[G,G] .[F,F].[E,E].[D,D].[C,C] | %64
[K:bass] .[B,,B,].[A,,A,].[G,,G,].[F,,F,] .[_E,,_E,].[D,,D,].[C,,C,].[A,,,A,,] | %65
 !>![A,,,D,,G,,]2[K:treble] z2 z2 !wedge![B,B]!wedge![B,B] | %66
 !wedge![B,B]!wedge![B,B]!wedge![B,B]!wedge![B,B]{/B} !>!F2 !wedge![B,B]!wedge![B,B] | %67
 !wedge![B,B]!wedge![B,B][K:bass].[G,,,G,,].[A,,,A,,] .[B,,,B,,].[C,,C,].[D,,D,].[E,,E,] | %68
 .[F,,F,].[G,,G,].[A,,A,].[B,,B,] .[C,C].[^C,^C].[D,D].[G,G] | %69
 .[_B,,E,G,].[_B,,,B,,].[B,,,B,,].[B,,,B,,] .[B,,,B,,].[B,,,B,,].[B,,,B,,].[B,,,B,,] | %70
 .[_B,,,_B,,].[B,,,B,,].[B,,,B,,].[B,,,B,,] .[B,,,B,,].[B,,,B,,].[B,,,B,,].[B,,,B,,] | %71
 .[B,,,B,,].[B,,,B,,].[B,,,B,,].[B,,,B,,] .[B,,,B,,].[B,,,B,,].[B,,,B,,].[B,,,B,,] | %72
 .[B,,,B,,].[B,,,B,,].[B,,,B,,].[B,,,B,,] .[B,,,B,,].[B,,,B,,].[B,,,B,,].[B,,,B,,] | %73
 .[C,,C,].[C,,C,].[C,,C,].[C,,C,] .[C,,C,].[C,,C,].[C,,C,].[C,,C,] | %74
 .[^C,,^C,].[C,,C,].[C,,C,].[C,,C,] .[C,,C,].[C,,C,].[C,,C,].[C,,C,] | %75
 [D,,D,] z [F,A,][F,A,] [F,A,D]2 [E,G,C][E,G,C] | %76
 [G,,,G,,] z [F,A,][F,A,] [F,A,D]2 [E,G,C][E,G,C] | %77
 [G,,,G,,] z [G,,,G,,]/A,,,/B,,,/C,,/ D,,/C,,/B,,,/A,,,/ [G,,,G,,]/A,,,/B,,,/C,,/ | %78
 D,,/C,,/B,,,/A,,,/ [G,,,G,,]/A,,,/B,,,/C,,/ D,,/C,,/B,,,/A,,,/ [G,,,G,,] z | %79
 [C,,C,] z [E,,E,] z [F,,F,] z [^F,,^F,] z | [G,,C,E,G,] z z2 [G,,B,,D,F,G,] z z2 | %81
 [C,,C,] z [E,,E,] z [F,,F,] z [^F,,^F,] z | [G,,C,E,G,] z z2 [G,,B,,D,F,G,] z z2 | %83
 [C,,C,] z[K:treble]{/^d'} e' z[K:bass] ([_B,,_B,]4 | %84
 [A,,A,]) z[K:treble]{/^d'} e' z[K:bass] ([_A,,_A,]4 | %85
 [G,,G,]) z[K:treble]{/^d'} e' z[K:bass] [A,,A,] z[K:treble]{/d'} e' z | %86
[K:bass] [_B,,_B,] z[K:treble]{/^d'} e' z[K:bass] [=B,,=B,] z[K:treble]{/d'} e' z | %87
[K:bass] [C,,C,][G,,G,][C,C][G,,G,] [C,C][G,,G,][C,C][G,,G,] | %88
 [C,C][G,,G,][C,C][G,,G,] [C,C][G,,G,][C,C][G,,G,] | [C,C]2 z2 [C,E,G,C]2 z2 | [C,,G,,C,]2 z2 z4 |] %91
V:3
 x8 | x8 | x8 | x8 | x4!8vb(! x4 | x8 | x8 | x8 | x!8vb)! x299/60[K:treble] x2 | %9
 x2[K:bass] x383/64 | x8 | x8 | x8 | x8 | x8 | x8 | x8 | x8 | x8 | x8 | x8 | x8 | x8 | x8 | x8 | %25
 x5[K:treble] x3 |[K:bass] x8 | x8 | x8 | x8 | x8 | x8 | x8 | x8 | x8 | x8 | x8 | x8 | x8 | x8 | %40
 x8 | x2[K:treble] x6 |[K:bass] x8 | x8 | x8 | x8 | x8 | x8 | x8 | x8 | x8 | x8 | x8 | x8 | x8 | %55
 x8 | x8 | [G,,,G,,]2 z2 [G,,,G,,]2 z2 | [G,,,G,,]2 z2 [G,,,G,,]2 z2 | %59
 [G,,,G,,]2 z2 [G,,,G,,]2 z2 | [G,,,G,,]2 z2 [G,,,G,,]2 z2 | x2[K:treble] x6 | x8 | x8 | %64
[K:bass] x8 | x2[K:treble] x6 | x8 | x2[K:bass] x6 | x8 | x8 | x8 | x8 | x8 | x8 | x8 | x8 | x8 | %77
 x8 | x8 | x8 | x8 | x8 | x8 | x2[K:treble] x2[K:bass] x4 | x2[K:treble] x2[K:bass] x4 | %85
 x2[K:treble] x2[K:bass] x2[K:treble] x2 |[K:bass] x2[K:treble] x2[K:bass] x2[K:treble] x2 | %87
[K:bass] x8 | x8 | x8 | x8 |] %91
V:4
 x8 | x8 | x8 | x8 | x8 | x8 | x8 | x8 | x479/60 |!8va(! x179/60!8va)! x191/64!8va(! x2!8va)! | %10
 x8 | x8 | x8 | x8 | x8 | x8 | x8 | x8 | x8 | x8 | x8 | x8 | x8 | x8 | x8 | x4!8va(! x3!8va)! x | %26
[K:bass] x6[K:treble] x2 | x4!8va(! x4!8va)! |!8va(! x8!8va)! | x8 | x8 | x4!8va(! x4!8va)! | %32
!8va(! x8!8va)! | x8 | x8 | x8 | x8 | x8 | x8 | x8 |!8va(! x8!8va)! |!8va(! x6!8va)! x2 | %42
 x4[K:bass] x4 |[K:treble] x8 | x8 | x8 | x8 | x8 | x8 | x8 | x8 | x8 | x8 | x8 | x8 | x8 | x8 | %57
 x8 | x8 | x8 | x8 | x8 | x8 | x2 !>!e2 !wedge!A!wedge!A !>!e2 | %64
 !wedge!A!wedge!A !>!_e2 !wedge!A!wedge!A !>!d2 | x8 | x8 | x2 !>!F2 !wedge!B!wedge!B !>!F2 | %68
 !wedge!B!wedge!B !>!F2 !wedge!B!wedge!B !>!F2 | x8 | x8 | x8 | x4!8va(! x4 | x3!8va)! x5 | %74
 x2!8va(! x6 | x!8va)! x255/64!8va(! x3 | x!8va)! x255/64!8va(! x3 | x!8va)! x7 | x8 | x8 | x8 | %81
 x8 | x8 | x8 | x8 | x8 | x8 | x8 | x8 | x8 | x8 |] %91

